!!!!SEGMENT: pl-cz--iii-270--005_gotschalk-filip--missa-pastoriria-in-c-benedictus.krn
!!!cenid: 18xx:127
!!!COM: Gotschalk, Filip
!!!COM-rism: pe30020320
!!!CDT: 1760-1809
!!!CNT:
!!!OTL: Missa Pastoritia in C - Benedictus
!!!PDT:
!!!AGN: Sacred; Mass
!!!SMS-siglum: PL-CZ
!!!SMS-shelfmark: III-270
!!!NIFC-rismID:
!!!URL-scan: http://repozytorium.nifc.pl/skany/pl-cz-nut--iii-270
!!!ONB-nifc:
**kern	**fb	**dynam	**kern	**text	**kern	**text	**kern	**dynam	**kern	**dynam	**kern	**dynam	**kern	**dynam
*part7	*	*part7	*part4	*part4	*part3	*part3	*part6	*part6	*part5	*part5	*part2	*part2	*part1	*part1
*staff7	*	*	*staff4	*staff4	*staff3	*staff3	*staff6	*	*staff5	*	*staff2	*	*staff1	*
*I"Organo	*	*	*I"Basso	*	*I"Alto	*	*I"Violino Secondo	*	*I"Violino Primo	*	*I"Clarinetto Secondo	*	*I"Clarinetto Primo	*
*I'Org	*	*	*I'B	*	*I'A	*	*I'Vln II	*	*I'Vln I	*	*I'Cl II	*	*I'Cl I	*
*clefF4	*	*	*clefF4	*	*clefC3	*	*clefG2	*	*clefG2	*	*clefG2	*	*clefG2	*
*k[b-]	*	*	*k[b-]	*	*k[b-]	*	*k[b-]	*	*k[b-]	*	*k[b-]	*	*k[b-]	*
*F:	*	*	*F:	*	*F:	*	*F:	*	*F:	*	*F:	*	*F:	*
*M2/4	*	*	*M2/4	*	*M2/4	*	*M2/4	*	*M2/4	*	*M2/4	*	*M2/4	*
=1	=1	=1	=1	=1	=1	=1	=1	=1	=1	=1	=1	=1	=1	=1
!LO:TX:a:t=Solo	!	!	!	!	!	!	!LO:TX:a:t=Solo	!	!LO:TX:a:B:t=Andante	!	!LO:TX:a:B:t=Andante	!	!LO:TX:a:B:t=Andante	!
8F'L	.	p	2r	.	2r	.	16aLL\	f	16ffLL	.	2r	.	2r	.
.	.	.	.	.	.	.	16b-	.	16gg	.	.	.	.	.
8C'J	.	.	.	.	.	.	16a	.	16ff	.	.	.	.	.
.	.	.	.	.	.	.	16gJJ	.	16eeJJ	.	.	.	.	.
8F'L	.	.	.	.	.	.	8fL 8a	.	8ffL	.	.	.	.	.
8C'J	.	.	.	.	.	.	8fJ 8a	.	8ccJ	.	.	.	.	.
=2	=2	=2	=2	=2	=2	=2	=2	=2	=2	=2	=2	=2	=2	=2
8FFL	.	.	2r	.	2r	.	8.ccL	.	8.aaL	.	8.ccL	.	8.aaL	.
8CJ	.	.	.	.	.	.	.	.	.	.	.	.	.	.
.	.	.	.	.	.	.	16b-Jk	.	16ggJk	.	16b-Jk	.	16ggJk	.
8FL\	.	.	.	.	.	.	(>16b-LL\	.	16ggLL	.	(<16b-LL	.	16ggLL	.
.	.	.	.	.	.	.	16aJ	.	16ffJ	.	16aJ)	.	16ffJ	.
8FFJ/	.	.	.	.	.	.	8aJ)	.	8ffJ	.	8aJ	.	8ffJ	.
=3	=3	=3	=3	=3	=3	=3	=3	=3	=3	=3	=3	=3	=3	=3
8FL	.	.	2r	.	2r	.	(>16ffLL	.	16aaLL	.	2r	.	2r	.
.	.	.	.	.	.	.	16gg	.	16bb-	.	.	.	.	.
8CJ	.	.	.	.	.	.	16ff	.	16aa	.	.	.	.	.
.	.	.	.	.	.	.	16eeJJ)	.	16ggJJ	.	.	.	.	.
8FL	5 3	.	.	.	.	.	8ffL	.	8aaL	.	.	.	.	.
8FJ	.	.	.	.	.	.	8ccJ	.	8ffJ	.	.	.	.	.
!	!	!	!	!	!	!	!LO:LB:g=original	!	!LO:LB:g=original	!	!	!	!	!
=4	=4	=4	=4	=4	=4	=4	=4	=4	=4	=4	=4	=4	=4	=4
16r	.	.	2r	.	2r	.	8.aaL	.	8.cccL	.	8.aaL	.	8.cccL	.
16FLL	.	.	.	.	.	.	.	.	.	.	.	.	.	.
16A	.	.	.	.	.	.	.	.	.	.	.	.	.	.
16cJJ	.	.	.	.	.	.	16ggJk	.	16bb-Jk	.	16ggJk	.	16bb-Jk	.
8FL\	.	.	.	.	.	.	16ggLL	.	16bb-LL	.	(>16ggLL	.	16bb-LL	.
.	.	.	.	.	.	.	16ffJ	.	16aaJ	.	16ffJ)	.	16aaJ	.
8FFJ/	.	.	.	.	.	.	8ffJ	.	8aaJ	.	8ffJ	.	8aaJ	.
=5	=5	=5	=5	=5	=5	=5	=5	=5	=5	=5	=5	=5	=5	=5
16GLL	3	.	2r	.	2r	.	16b-LL	.	16bb-LL	.	2r	.	2r	.
16F#X	3	.	.	.	.	.	16a	.	16aa	.	.	.	.	.
16G	3	.	.	.	.	.	16b-	.	16bb-	.	.	.	.	.
16AJJ	3	.	.	.	.	.	16ccJJ	.	16cccJJ	.	.	.	.	.
8B-L	3	.	.	.	.	.	8ddL	.	8dddL	.	.	.	.	.
8GJ	3	.	.	.	.	.	8b-J	.	8bb-J	.	.	.	.	.
!LO:LB:g=original	!	!	!	!	!	!	!	!	!	!	!	!	!	!
=6	=6	=6	=6	=6	=6	=6	=6	=6	=6	=6	=6	=6	=6	=6
16ELL	3	.	2r	.	2r	.	16gLL	.	16ggLL	.	2r	.	2r	.
16D#X	3	.	.	.	.	.	16f#X	.	16ff#X	.	.	.	.	.
16E	3	.	.	.	.	.	16g	.	16gg	.	.	.	.	.
16FJJ	3	.	.	.	.	.	16aJJ	.	16aaJJ	.	.	.	.	.
8GL	3	.	.	.	.	.	8b-L	.	8bb-L	.	.	.	.	.
8EJ	3	.	.	.	.	.	8gJ	.	8ggJ	.	.	.	.	.
!	!	!	!	!	!	!	!	!	!	!	!	!	!LO:LB:g=original	!
=7	=7	=7	=7	=7	=7	=7	=7	=7	=7	=7	=7	=7	=7	=7
16CLL	3	.	2r	.	2r	.	16eLL	.	16eeLL	.	16eLL	.	16eeLL	.
16BBn	3	.	.	.	.	.	16d	.	16dd	.	16d	.	16dd	.
16C	3	.	.	.	.	.	16e	.	16ee	.	16e	.	16ee	.
16DJJ	3	.	.	.	.	.	16fJJ	.	16ffJJ	.	16fJJ	.	16ffJJ	.
8EL	3	.	.	.	.	.	8gL	.	8ggL	.	8gL	.	8ggL	.
8GJ	3	.	.	.	.	.	16eL	.	16eeL	.	8gJ	.	16eeL	.
.	.	.	.	.	.	.	16dJJ	.	16ddJJ	.	.	.	16ddJJ	.
!	!	!	!	!	!	!	!	!	!	!	!LO:LB:g=original	!	!	!
=8	=8	=8	=8	=8	=8	=8	=8	=8	=8	=8	=8	=8	=8	=8
16c`LL	.	.	2r	.	2r	.	16cLL	.	16ccLL	.	8ccL\	.	16ccLL	.
16d`	.	.	.	.	.	.	16Bn	.	16dd	.	.	.	16dd	.
16c`	.	.	.	.	.	.	16c	.	16cc	.	8gJ/	.	16cc	.
16Bn`JJ	.	.	.	.	.	.	16BJJ	.	16bnJJ	.	.	.	16bnJJ	.
4c	.	.	.	.	.	.	4c	.	4cc	.	4c	.	4cc	.
!	!	!	!	!	!	!	!	!	!LO:PB:g=original	!	!	!	!	!
=9	=9	=9	=9	=9	=9	=9	=9	=9	=9	=9	=9	=9	=9	=9
16C'`LL	.	.	2r	.	2r	.	16cLL	.	16ccLL	.	2r	.	2r	.
16D'`	.	.	.	.	.	.	16d	.	16dd	.	.	.	.	.
16E'`	.	.	.	.	.	.	16e	.	16ee	.	.	.	.	.
16F'`JJ	.	.	.	.	.	.	16fJJ	.	16ffJJ	.	.	.	.	.
16G'`LL	.	.	.	.	.	.	16gLL	.	16ggLL	.	.	.	.	.
16E'`	.	.	.	.	.	.	16e	.	16ee	.	.	.	.	.
16F'`	.	.	.	.	.	.	16f	.	16ff	.	.	.	.	.
16D'`JJ	.	.	.	.	.	.	16dJJ	.	16ddJJ	.	.	.	.	.
!	!	!	!	!	!	!	!LO:LB:g=original	!	!	!	!	!	!	!
=10	=10	=10	=10	=10	=10	=10	=10	=10	=10	=10	=10	=10	=10	=10
16C'`LL	.	.	2r	.	2r	.	16cLL	.	16ccLL	.	(<16cLL	.	16ccLL	.
16D'`	.	.	.	.	.	.	16d	.	16dd	.	16d	.	16dd	.
16C'`	.	.	.	.	.	.	16c	.	16cc	.	16c	.	16cc	.
16BBn'`JJ	.	.	.	.	.	.	16BnJJ	.	16bnJJ	.	16BnJJ)	.	16bnJJ	.
4C`	.	.	.	.	.	.	4c	.	4cc	.	4c	.	4cc	.
=11	=11	=11	=11	=11	=11	=11	=11	=11	=11	=11	=11	=11	=11	=11
8CL	.	.	2r	.	2r	.	8eL	.	8eeL	.	2r	.	2r	.
8c	.	.	.	.	.	.	16eL	.	16eeL	.	.	.	.	.
.	.	.	.	.	.	.	16gJJ	.	16ggJJ	.	.	.	.	.
8C	7	.	.	.	.	.	8b-XL	.	8bb-XL	.	.	.	.	.
8cJ	.	.	.	.	.	.	16gL	.	16ggL	.	.	.	.	.
.	.	.	.	.	.	.	16eJJ	.	16eeJJ	.	.	.	.	.
!LO:LB:g=original	!	!	!	!	!	!	!	!	!	!	!	!	!	!
=12	=12	=12	=12	=12	=12	=12	=12	=12	=12	=12	=12	=12	=12	=12
8r	.	.	2r	.	2r	.	8fL	.	8ffL	.	2r	.	2r	.
8FL	.	.	.	.	.	.	16fL	.	16ffL	.	.	.	.	.
.	.	.	.	.	.	.	16aJJ	.	16aaJJ	.	.	.	.	.
8A	.	.	.	.	.	.	4cc	.	4ccc	.	.	.	.	.
8FJ	.	.	.	.	.	.	.	.	.	.	.	.	.	.
=13	=13	=13	=13	=13	=13	=13	=13	=13	=13	=13	=13	=13	=13	=13
!LO:TX:a:t=problem:zbędna powtórka tt. 11-12, skreślona przy korekcie	!	!	!	!	!	!	!	!	!	!	!	!	!	!
8CL	.	.	2r	.	2r	.	2r	.	2r	.	2r	.	2r	.
8c	.	.	.	.	.	.	.	.	.	.	.	.	.	.
8C	.	.	.	.	.	.	.	.	.	.	.	.	.	.
8cJ	.	.	.	.	.	.	.	.	.	.	.	.	.	.
=14	=14	=14	=14	=14	=14	=14	=14	=14	=14	=14	=14	=14	=14	=14
8r	.	.	2r	.	2r	.	2r	.	2r	.	2r	.	2r	.
8FL	.	.	.	.	.	.	.	.	.	.	.	.	.	.
8A	.	.	.	.	.	.	.	.	.	.	.	.	.	.
8FJ	.	.	.	.	.	.	.	.	.	.	.	.	.	.
=15	=15	=15	=15	=15	=15	=15	=15	=15	=15	=15	=15	=15	=15	=15
8CL	7	.	2r	.	2r	.	8ggL	.	8bb-L	.	2r	.	2r	.
8CJ	.	.	.	.	.	.	16ggL	.	16bb-L	.	.	.	.	.
.	.	.	.	.	.	.	16eeJJ	.	16ggJJ	.	.	.	.	.
8FL	.	.	.	.	.	.	8ccL	.	8aaL	.	.	.	.	.
8FJ	.	.	.	.	.	.	16ccL	.	16aaL	.	.	.	.	.
.	.	.	.	.	.	.	16aJJ	.	16ffJJ	.	.	.	.	.
=16	=16	=16	=16	=16	=16	=16	=16	=16	=16	=16	=16	=16	=16	=16
8E'L	.	.	2r	.	2r	.	8eL	.	8eeL	.	2r	.	2r	.
16E'L	.	.	.	.	.	.	16eL	.	16eeL	.	.	.	.	.
16G'JJ	.	.	.	.	.	.	16gJJ	.	16ggJJ	.	.	.	.	.
4C'	.	.	.	.	.	.	4c	.	4cc	.	.	.	.	.
!	!	!	!	!	!	!	!	!	!LO:LB:g=original	!	!	!	!	!
=17	=17	=17	=17	=17	=17	=17	=17	=17	=17	=17	=17	=17	=17	=17
*tremolo	*	*	*	*	*	*	*	*	*	*	*	*	*	*
8CL	.	.	2r	.	2r	.	16eLL	.	16eeLL	.	2r	.	2r	.
.	.	.	.	.	.	.	16g	.	16gg	.	.	.	.	.
8C	.	.	.	.	.	.	16e	.	16ee	.	.	.	.	.
.	.	.	.	.	.	.	16gJJ	.	16ggJJ	.	.	.	.	.
8C	.	.	.	.	.	.	16b-LL	.	16bb-LL	.	.	.	.	.
.	.	.	.	.	.	.	16g	.	16gg	.	.	.	.	.
8CJ	.	.	.	.	.	.	16b-	.	16bb-	.	.	.	.	.
.	.	.	.	.	.	.	16gJJ	.	16ggJJ	.	.	.	.	.
*Xtremolo	*	*	*	*	*	*	*	*	*	*	*	*	*	*
!	!	!	!	!	!	!	!LO:LB:g=original	!	!	!	!	!	!	!
=18	=18	=18	=18	=18	=18	=18	=18	=18	=18	=18	=18	=18	=18	=18
8r	.	.	2r	.	2r	.	8fL	.	16ffLL	.	2r	.	2r	.
.	.	.	.	.	.	.	.	.	16aa	.	.	.	.	.
8FL	.	.	.	.	.	.	16fL	.	16ff	.	.	.	.	.
.	.	.	.	.	.	.	16aJJ	.	16aaJJ	.	.	.	.	.
8A	.	.	.	.	.	.	4cc	.	4ccc	.	.	.	.	.
8FJ	.	.	.	.	.	.	.	.	.	.	.	.	.	.
=19	=19	=19	=19	=19	=19	=19	=19	=19	=19	=19	=19	=19	=19	=19
*	*	*	*	*	*	*	*^	*	*	*	*	*	*	*
8FL\	.	.	2r	.	2r	.	16aaLL	4ryy	.	16cccLL	.	2r	.	2r	.
.	.	.	.	.	.	.	16ff	.	.	16aa	.	.	.	.	.
8B-\	.	.	.	.	.	.	16bb-	.	.	16ddd	.	.	.	.	.
.	.	.	.	.	.	.	16ggJJ	.	.	16bb-JJ	.	.	.	.	.
8c\	.	.	.	.	.	.	16ryy	16ffLL	.	8aaL	.	.	.	.	.
.	.	.	.	.	.	.	16ryy	16ddJ	.	.	.	.	.	.	.
8CJ/	.	.	.	.	.	.	8b-	8gJ	.	8ggJ	.	.	.	.	.
*	*	*	*	*	*	*	*v	*v	*	*	*	*	*	*	*
!LO:LB:g=original	!	!	!	!	!	!	!	!	!	!	!	!	!	!
=20	=20	=20	=20	=20	=20	=20	=20	=20	=20	=20	=20	=20	=20	=20
8FL\	.	.	2r	.	2r	.	8fL 8a	.	8ffL	.	2r	.	2r	.
8CJ/	.	.	.	.	.	.	16fL 16a	.	16ffL	.	.	.	.	.
.	.	.	.	.	.	.	16ccJJ	.	16aaJJ	.	.	.	.	.
8AAL	.	.	.	.	.	.	4f 4a	.	4ff	.	.	.	.	.
8FFJ	.	.	.	.	.	.	.	.	.	.	.	.	.	.
=21	=21	=21	=21	=21	=21	=21	=21	=21	=21	=21	=21	=21	=21	=21
!LO:TX:a:t=problem:takty 21-22 dodane po korekcie	!	!	!	!	!	!	!	!	!	!	!	!	!	!
*tremolo	*	*	*	*	*	*	*	*	*	*	*	*	*	*
8CL	.	.	2r	.	2r	.	8eL	.	8eeL	.	8eL	.	8eeL	.
8C	.	.	.	.	.	.	16eL	.	16eeL	.	16eL	.	16eeL	.
.	.	.	.	.	.	.	16gJJ	.	16ggJJ	.	16gJJ	.	16ggJJ	.
8C	.	.	.	.	.	.	8b-L	.	8bb-L	.	8b-XL	.	8bb-XL	.
8CJ	.	.	.	.	.	.	16gL	.	16ggL	.	16gL	.	16ggL	.
.	.	.	.	.	.	.	16eJJ	.	16eeJJ	.	16eJJ	.	16eeJJ	.
=22	=22	=22	=22	=22	=22	=22	=22	=22	=22	=22	=22	=22	=22	=22
8FL	.	.	2r	.	2r	.	8fL	.	8ffL	.	8fL	.	8ffL	.
8F	.	.	.	.	.	.	16fL	.	16ffL	.	16fL	.	16ffL	.
.	.	.	.	.	.	.	16aJJ	.	16aaJJ	.	16aJJ	.	16aaJJ	.
8F	.	.	.	.	.	.	4cc	.	4ccc	.	4cc	.	4ccc	.
8FJ	.	.	.	.	.	.	.	.	.	.	.	.	.	.
*Xtremolo	*	*	*	*	*	*	*	*	*	*	*	*	*	*
!	!	!	!	!	!	!	!	!	!LO:LB:g=original	!	!	!	!LO:LB:g=original	!
=23	=23	=23	=23	=23	=23	=23	=23	=23	=23	=23	=23	=23	=23	=23
8CL	7	.	2r	.	2r	.	8ggL	.	8bb-L	.	8b-L	.	8bb-L	.
8CJ	.	.	.	.	.	.	16ggL	.	16bb-L	.	16b-L	.	16bb-L	.
.	.	.	.	.	.	.	16eeJJ	.	16ggJJ	.	16gJJ	.	16ggJJ	.
8FL	.	.	.	.	.	.	8ccL	.	8aaL	.	8aL	.	8aaL	.
8FJ	.	.	.	.	.	.	16ccL	.	16aaL	.	16aL	.	16aaL	.
.	.	.	.	.	.	.	16aJJ	.	16ffJJ	.	16fJJ	.	16ffJJ	.
!	!	!	!	!	!	!	!LO:LB:g=original	!	!	!	!LO:LB:g=original	!	!	!
=24	=24	=24	=24	=24	=24	=24	=24	=24	=24	=24	=24	=24	=24	=24
8E'L	.	.	2r	.	2r	.	8eL	.	8eeL	.	8eL	.	8eeL	.
16E'L	.	.	.	.	.	.	16eL	.	16eeL	.	16eL	.	16eeL	.
16G'JJ	.	.	.	.	.	.	16gJJ	.	16ggJJ	.	16gJJ	.	16ggJJ	.
4C`	.	.	.	.	.	.	4c	.	4cc	.	4c	.	4cc	.
=25	=25	=25	=25	=25	=25	=25	=25	=25	=25	=25	=25	=25	=25	=25
*tremolo	*	*	*	*	*	*	*	*	*	*	*	*	*	*
8CL	.	.	2r	.	2r	.	16eLL	.	16eeLL	.	(<16eLL	.	16eeLL	.
.	.	.	.	.	.	.	16g	.	16gg	.	16g	.	16gg	.
8C	.	.	.	.	.	.	16e	.	16ee	.	16e	.	16ee	.
.	.	.	.	.	.	.	16gJJ	.	16ggJJ	.	16gJJ)	.	16ggJJ	.
8C	.	.	.	.	.	.	16b-LL	.	16bb-LL	.	(<16b-LL	.	16bb-LL	.
.	.	.	.	.	.	.	16g	.	16gg	.	16g	.	16gg	.
8CJ	.	.	.	.	.	.	16b-	.	16bb-	.	16b-	.	16bb-	.
.	.	.	.	.	.	.	16gJJ	.	16ggJJ	.	16gJJ)	.	16ggJJ	.
*Xtremolo	*	*	*	*	*	*	*	*	*	*	*	*	*	*
=26	=26	=26	=26	=26	=26	=26	=26	=26	=26	=26	=26	=26	=26	=26
8r	.	.	2r	.	2r	.	8fL	.	16ffLL	.	(<16fLL	.	16ffLL	.
.	.	.	.	.	.	.	.	.	16aa	.	16a	.	16aa	.
8FL	.	.	.	.	.	.	16fL	.	16ff	.	16f	.	16ff	.
.	.	.	.	.	.	.	16aJJ	.	16aaJJ	.	16aJJ)	.	16aaJJ	.
8A	.	.	.	.	.	.	4cc	.	4ccc	.	4cc	.	4ccc	.
8FJ	.	.	.	.	.	.	.	.	.	.	.	.	.	.
=27	=27	=27	=27	=27	=27	=27	=27	=27	=27	=27	=27	=27	=27	=27
8FL\	.	.	2r	.	2r	.	16aaLL	.	16cccLL	.	8r	.	8r	.
.	.	.	.	.	.	.	16ff	.	16aa	.	.	.	.	.
8B-\	.	.	.	.	.	.	16bb-	.	16ddd	.	16r	.	16r	.
.	.	.	.	.	.	.	16ggJJ	.	16bb-JJ	.	16gg	.	16bb-	.
8c\	.	.	.	.	.	.	16ffLL	.	8aaL	.	8ffL	.	8aaL	.
.	.	.	.	.	.	.	16cc	.	.	.	.	.	.	.
8CJ/	.	.	.	.	.	.	16b-	.	8ggJ	.	8eeJ	.	8ggJ	.
.	.	.	.	.	.	.	16ccJJ	.	.	.	.	.	.	.
=28	=28	=28	=28	=28	=28	=28	=28	=28	=28	=28	=28	=28	=28	=28
8FL\	.	.	2r	.	2r	.	8aL	.	8ffL	.	8aL\	.	8ffL	.
8CJ/	.	.	.	.	.	.	16aL	.	16ffL	.	16aL	.	16ffL	.
.	.	.	.	.	.	.	16ccJJ	.	16aaJJ	.	16ccJJ	.	16aaJJ	.
!	!	!	!	!	!	!	!	!	!	!	!LO:TX:b:t=fin.	!	!LO:TX:b:t=fin.	!
8AAL	.	.	.	.	.	.	4f; 4a	.	4ff;	.	4a;	.	4ff;	.
!LO:TX:a:t=  problem:fermata zapisana powyżej i poniżej	!	!	!	!	!	!	!	!	!	!	!	!	!	!
8FF;J	.	.	.	.	.	.	.	.	.	.	.	.	.	.
!	!	!	!	!	!	!	!	!	!LO:LB:g=original	!	!	!	!LO:LB:g=original	!
=29	=29	=29	=29	=29	=29	=29	=29	=29	=29	=29	=29	=29	=29	=29
!LO:TX:a:t=Solo	!	!	!	!	!	!	!LO:TX:a:t=Vox	!	!	!	!	!	!LO:TX:a:t=Fine	!
8F'L	.	.	16FLL	Be-	2r	.	16aLL	p	16ffLL	p	2r	.	2r	.
.	.	.	16GJJ	.	.	.	16b-	.	16gg	.	.	.	.	.
8C'	.	.	16FLL	-ne-	.	.	16a	.	16ff	.	.	.	.	.
.	.	.	16EJJ	.	.	.	16gJJ	.	16eeJJ	.	.	.	.	.
8F'	.	.	8F	-dic-	.	.	8fL 8a	.	8ffL	.	.	.	.	.
8C'J	.	.	8C	-tus	.	.	8fJ 8a	.	8ccJ	.	.	.	.	.
!LO:LB:g=original	!	!	!	!	!	!	!LO:LB:g=original	!	!	!	!	!	!	!
=30	=30	=30	=30	=30	=30	=30	=30	=30	=30	=30	=30	=30	=30	=30
!	!	!	!	!	!LO:TX:a:t=Solo	!	!	!	!	!	!	!	!	!
8FFL	.	p	8.F	Be-	8.a	Be-	8.ccL	.	8.aaL	.	8.ccL	p	8.aaL	p
8CJ	.	.	.	.	.	.	.	.	.	.	.	.	.	.
.	.	.	16C	-ne-	16g	-ne-	16b-Jk	.	16ggJk	.	16b-Jk	.	16ggJk	.
8FL\	.	.	16AALL	-dic-	16gLL	-dic-	16b-LL	.	16ggLL	.	(<16b-LL\	.	(>16ggLL	.
.	.	.	16CJJ	.	16fJJ	.	16aJ	.	16ffJ	.	16aJ)	.	16ffJ)	.
8FFJ/	.	.	8FF	-tus	8f	-tus	8aJ	.	8ffJ	.	8aJ	.	8ff`J	.
!	!	!	!	!	!	!	!	!	!	!	!LO:LB:g=original	!	!	!
=31	=31	=31	=31	=31	=31	=31	=31	=31	=31	=31	=31	=31	=31	=31
8FL\	.	.	(>16FLL	be-	16aLL	be-	(>16ffLL	.	16aaLL	.	2r	.	2r	.
.	.	.	16GJJ)	.	16b-JJ	.	16gg	.	16bb-	.	.	.	.	.
8CJ/	.	.	(>16FLL	-ne-	16aLL	-ne-	16ff	.	16aa	.	.	.	.	.
.	.	.	16EJJ)	.	16gJJ	.	16eeJJ	.	16ggJJ	.	.	.	.	.
!	!	!	!LO:LB:g=original	!	!	!	!	!	!	!	!	!	!	!
8FL	.	.	8F	-dic-	8a	-dic-	8ffL\)	.	8aaL	.	.	.	.	.
8FJ	.	.	8C	-tus	8f	-tus	8aJ/	.	8ffJ	.	.	.	.	.
=32	=32	=32	=32	=32	=32	=32	=32	=32	=32	=32	=32	=32	=32	=32
8r	.	.	8.A	be-	8.cc	be-	8.aaL	.	8.cccL	.	8.aaL	.	8.cccL	.
8CL/	7	.	.	.	.	.	.	.	.	.	.	.	.	.
.	.	.	16G	-ne-	16b-	-ne-	16ggJk	.	16bb-Jk	.	16ggJk	.	16bb-Jk	.
8F\	.	.	16GLL	-dic-	16b-LL	-dic-	16ggLL	.	16bb-LL	.	16ggLL	.	16bb-LL	.
.	.	.	16FJJ	.	16aJJ	.	16ffJ	.	16aaJ	.	16ffJ	.	16aaJ	.
8FFJ/	.	.	8F	-tus	8a	-tus	8ffJ	.	8aaJ	.	8ffJ	.	8aaJ	.
!	!	!	!	!	!LO:LB:g=original	!	!	!	!	!	!	!	!	!
=33	=33	=33	=33	=33	=33	=33	=33	=33	=33	=33	=33	=33	=33	=33
16GLL	3	.	16GLL	qui	16b-LL	qui	2r	.	2r	.	2r	.	2r	.
16F#X	3	.	16F#X	.	16a	.	.	.	.	.	.	.	.	.
16G	3	.	16G	.	16b-	.	.	.	.	.	.	.	.	.
16AJJ	3	.	16AJJ	.	16ccJJ	.	.	.	.	.	.	.	.	.
8B-L	3	.	8B-	ve-	8dd	ve-	.	.	.	.	.	.	.	.
8GJ	3	.	8G	-nit	8b-	-nit	.	.	.	.	.	.	.	.
=34	=34	=34	=34	=34	=34	=34	=34	=34	=34	=34	=34	=34	=34	=34
16GLL	3	.	16ELL	qui	16gLL	qui	2r	.	2r	.	2r	.	2r	.
16F	3	.	16D	.	16f#X	.	.	.	.	.	.	.	.	.
16G	3	.	16E	.	16g	.	.	.	.	.	.	.	.	.
16AJJ	3	.	16FJJ	.	16aJJ	.	.	.	.	.	.	.	.	.
8GL	3	.	8G	ve-	8b-	ve-	.	.	.	.	.	.	.	.
8EJ	3	.	16E	-nit	16g	-nit	.	.	.	.	.	.	.	.
.	.	.	16E	in	16g	in	.	.	.	.	.	.	.	.
!LO:LB:g=original	!	!	!LO:PB:g=original	!	!	!	!	!	!	!	!	!	!	!
=35	=35	=35	=35	=35	=35	=35	=35	=35	=35	=35	=35	=35	=35	=35
16CLL	3	.	(16cLL	no-	16eLL	no-	2r	.	2r	.	2r	.	2r	.
16BBn	3	.	16Bn	.	16d	.	.	.	.	.	.	.	.	.
16C	3	.	16c	.	16e	.	.	.	.	.	.	.	.	.
16DJJ	3	.	16dJJ	.	(>16fJJ	.	.	.	.	.	.	.	.	.
8EL	.	.	8e)	.	8g)	.	.	.	.	.	.	.	.	.
8CJ	.	.	16c	-mi-	16e	-mi-	.	.	.	.	.	.	.	.
.	.	.	16c	-ne	16e	-ne	.	.	.	.	.	.	.	.
!	!	!	!	!	!LO:LB:g=original	!	!	!	!	!	!	!	!	!
=36	=36	=36	=36	=36	=36	=36	=36	=36	=36	=36	=36	=36	=36	=36
16c'LL	.	.	16cLL	Do-	16ccLL	Do-	2r	.	2r	.	2r	.	2r	.
16Bn'	.	.	16BnJJ	.	16bn	.	.	.	.	.	.	.	.	.
16c'	.	.	16cLL	-mi-	16cc	-mi-	.	.	.	.	.	.	.	.
16d'JJ	.	.	16dJJ	.	16ddJJ	.	.	.	.	.	.	.	.	.
4c	.	.	4c	-ni	4cc	-ni	.	.	.	.	.	.	.	.
=37	=37	=37	=37	=37	=37	=37	=37	=37	=37	=37	=37	=37	=37	=37
4C	.	.	2r	.	2r	.	(<16cLL	f	16ccLL	f	2r	.	2r	.
.	.	.	.	.	.	.	16d	.	16dd	.	.	.	.	.
.	.	.	.	.	.	.	16e	.	16ee	.	.	.	.	.
.	.	.	.	.	.	.	16fJJ)	.	16ffJJ	.	.	.	.	.
8EL	.	.	.	.	.	.	(<16gLL	.	16ggLL	.	.	.	.	.
.	.	.	.	.	.	.	16e)	.	16ee	.	.	.	.	.
8GJ	.	.	.	.	.	.	(<16f	.	16ff	.	.	.	.	.
.	.	.	.	.	.	.	16dJJ)	.	16ddJJ	.	.	.	.	.
=38	=38	=38	=38	=38	=38	=38	=38	=38	=38	=38	=38	=38	=38	=38
16c`LL	.	.	2r	.	2r	.	(<16cLL	.	16ccLL	.	16ccLL	f	16cccLL	f
16d`	.	.	.	.	.	.	16d	.	16dd	.	16dd	.	16ddd	.
16c`	.	.	.	.	.	.	16c	.	16cc	.	16cc	.	16ccc	.
16Bn`JJ	.	.	.	.	.	.	16BnJJ)	.	16bnJJ	.	16bnJJ	.	16bbnJJ	.
4c`	.	.	.	.	.	.	4c	.	4cc	.	4cc	.	4ccc	.
!	!	!	!	!	!	!	!LO:LB:g=original	!	!LO:LB:g=original	!	!	!	!	!
=39	=39	=39	=39	=39	=39	=39	=39	=39	=39	=39	=39	=39	=39	=39
*tremolo	*	*	*	*	*	*	*	*	*	*	*	*	*	*
8CL	.	7	8.c	Be-	8.e	Be-	(<16gLL	p	8eeL	p	4r	.	4r	.
.	.	.	.	.	.	.	16b-)	.	.	.	.	.	.	.
8C	.	.	.	.	.	.	(<16g	.	16eeL	.	.	.	.	.
.	.	.	16c	-ne-	16g	-ne-	16b-JJ)	.	16ggJJ	.	.	.	.	.
8C	.	.	8c	-dic-	8b-X	-dic-	(<16gLL	.	8bb-L	.	8ggL	p	8bb-XL	p
.	.	.	.	.	.	.	16b-)	.	.	.	.	.	.	.
8CJ	.	.	16c	-tus	16g	-tus	(<16g	.	16ggL	.	8eeJ	.	8ggJ	.
.	.	.	16c	qui	16e	qui	16b-JJ)	.	16eeJJ	.	.	.	.	.
=40	=40	=40	=40	=40	=40	=40	=40	=40	=40	=40	=40	=40	=40	=40
8FL	.	.	4F	ve-	8.fL	ve-	(>16aLL	.	8.ffL	.	4r	.	4r	.
.	.	.	.	.	.	.	16cc)	.	.	.	.	.	.	.
8F	.	.	.	.	.	.	(>16a	.	.	.	.	.	.	.
.	.	.	.	.	16aJk	.	16ccJJ)	.	16aaJk	.	.	.	.	.
!	!	!	!	!	!	!	!LO:TX:a:t=problem:pół taktu powtórzone znakiem ÷	!	!	!	!	!	!	!
8F	.	.	8A	-nit	8cc	-nit	(>16aLL	.	8cccL	.	8aaL	.	8cccL	.
.	.	.	.	.	.	.	16cc)	.	.	.	.	.	.	.
8FJ	.	.	8r	.	8r	.	(>16a	.	16aaL	.	8ffJ	.	8aaJ	.
.	.	.	.	.	.	.	16ccJJ)	.	16ffJJ	.	.	.	.	.
!	!	!	!LO:LB:g=original	!	!	!	!	!	!	!	!	!	!LO:LB:g=original	!
=41	=41	=41	=41	=41	=41	=41	=41	=41	=41	=41	=41	=41	=41	=41
8r	.	.	4r	.	4r	.	(<16gLL	.	8bb-L	.	8r	.	8r	.
.	.	.	.	.	.	.	16cc)	.	.	.	.	.	.	.
8E	6	.	.	.	.	.	(<16g	.	16bb-L	.	16ggLL	.	16bb-LL	.
.	.	.	.	.	.	.	16ccJJ)	.	16ggJJ	.	16eeJJ	.	16ggJJ	.
8r	.	.	8r	.	8r	.	(>16aLL	.	8aaL	.	8r	.	8r	.
.	.	.	.	.	.	.	16cc)	.	.	.	.	.	.	.
8F	.	.	16r	.	16r	.	(>16a	.	16aaL	.	16ccLL	.	16aaLL	.
.	.	.	16F	qui	16f	qui	16ccJJ)	.	16ffJJ	.	16aJJ	.	16ffJJ	.
!LO:LB:g=original	!	!	!	!	!LO:LB:g=original	!	!	!	!	!	!LO:LB:g=original	!	!	!
=42	=42	=42	=42	=42	=42	=42	=42	=42	=42	=42	=42	=42	=42	=42
8cL	.	.	16ELL	ve-	16eLL	ve-	8ccL\	.	16eeLL	.	8cc	.	8ee	.
.	.	.	16F	.	16f	.	.	.	16ff	.	.	.	.	.
8GJ	.	.	16F#X	.	16f#X	.	8eJ 8cc	.	16ff#X	.	8r	.	8r	.
.	.	.	16GJJ	.	16gJJ	.	.	.	16ggJJ	.	.	.	.	.
16CLL	.	.	8C	-nit	4c/	-nit	4e 4cc\	.	4cc	.	4r	.	4r	.
16EJJ	.	.	.	.	.	.	.	.	.	.	.	.	.	.
16GLL	.	.	8r	.	.	.	.	.	.	.	.	.	.	.
16cJJ	.	.	.	.	.	.	.	.	.	.	.	.	.	.
=43	=43	=43	=43	=43	=43	=43	=43	=43	=43	=43	=43	=43	=43	=43
8CL	7	.	8CL	in	16eLL	in	8eeL	.	8ggL	.	2r	.	2r	.
.	.	.	.	.	16g	.	.	.	.	.	.	.	.	.
8C	.	.	16CL	.	16e	.	8ee	.	8gg	.	.	.	.	.
.	.	.	16EJJ	.	16gJJ	.	.	.	.	.	.	.	.	.
8C	.	.	16GLL	no-	16b-LL	no-	8gg	.	8bb-	.	.	.	.	.
.	.	.	16EJJ	.	16gJJ	.	.	.	.	.	.	.	.	.
8CJ	.	.	16G	-mi-	16b-	-mi-	8ccJ 8ee	.	8ggJ	.	.	.	.	.
.	.	.	16E	-ne	16g	-ne	.	.	.	.	.	.	.	.
*Xtremolo	*	*	*	*	*	*	*	*	*	*	*	*	*	*
=44	=44	=44	=44	=44	=44	=44	=44	=44	=44	=44	=44	=44	=44	=44
8r	.	.	8.F	Do-	16fLL	Do-	8fL 8a	.	8aaL	.	2r	.	2r	.
.	.	.	.	.	16aJJ	.	.	.	.	.	.	.	.	.
8FL	.	.	.	.	16fLL	-mi-	8fJ 8a	.	8aaJ	.	.	.	.	.
.	.	.	16F	-mi-	16aJJ	.	.	.	.	.	.	.	.	.
8A	.	.	4A	-ni	4cc	-ni	4f 4a	.	4ccc	.	.	.	.	.
8FJ	.	.	.	.	.	.	.	.	.	.	.	.	.	.
!	!	!	!LO:LB:g=original	!	!LO:LB:g=original	!	!	!	!	!	!	!	!	!
=45	=45	=45	=45	=45	=45	=45	=45	=45	=45	=45	=45	=45	=45	=45
8B-L\	.	.	(>4B-	in	8.ddL	in	2r	.	2r	.	2r	.	2r	.
8B-\	.	.	.	.	.	.	.	.	.	.	.	.	.	.
.	.	.	.	.	16b-Jk	.	.	.	.	.	.	.	.	.
8c\	.	.	8c)	no-	16gLL	no-	.	.	.	.	.	.	.	.
.	.	.	.	.	16b-JJ	.	.	.	.	.	.	.	.	.
8CJ/	.	.	16C	-mi-	16g	-mi-	.	.	.	.	.	.	.	.
.	.	.	16C	-ne	16e	-ne	.	.	.	.	.	.	.	.
=46	=46	=46	=46	=46	=46	=46	=46	=46	=46	=46	=46	=46	=46	=46
8FL\	.	.	8F	Do-	(>16fLL	Do-	2r	.	2r	.	2r	.	2r	.
.	.	.	.	.	16e	.	.	.	.	.	.	.	.	.
8CJ/	.	.	8C	-mi-	16fJJ	.	.	.	.	.	.	.	.	.
.	.	.	.	.	16a)	-mi-	.	.	.	.	.	.	.	.
8AAL	.	.	4FF	-ni	4f	-ni	.	.	.	.	.	.	.	.
8FFJ	.	.	.	.	.	.	.	.	.	.	.	.	.	.
!	!	!	!	!	!	!	!LO:LB:g=original	!	!	!	!	!	!	!
=47	=47	=47	=47	=47	=47	=47	=47	=47	=47	=47	=47	=47	=47	=47
*tremolo	*	*	*	*	*	*	*	*	*	*	*	*	*	*
8CL	7	.	8.c	be-	8.e	be-	(<16gLL	p	8eeL	p	4r	.	4r	.
.	.	.	.	.	.	.	16b-)	.	.	.	.	.	.	.
8C	.	.	.	.	.	.	(<16g	.	16eeL	.	.	.	.	.
.	.	.	16c	-ne-	16g	-ne-	16b-JJ)	.	16ggJJ	.	.	.	.	.
!	!	!	!	!	!	!	!LO:TX:a:t=problem:pół taktu powtórzone znakiem ÷	!	!	!	!	!	!	!
8C	.	.	8c	-dic-	8b-	-dic-	(<16gLL	.	8bb-L	.	8ccL	p	8bb-L	p
.	.	.	.	.	.	.	16b-)	.	.	.	.	.	.	.
8CJ	.	.	16C	-tus	16g	-tus	(<16g	.	16ggL	.	8ccJ	.	16ggL	.
.	.	.	16C	qui	16e	qui	16b-JJ)	.	16eeJJ	.	.	.	16eeJJ	.
!	!	!	!	!	!LO:LB:g=original	!	!	!	!LO:LB:g=original	!	!	!	!	!
=48	=48	=48	=48	=48	=48	=48	=48	=48	=48	=48	=48	=48	=48	=48
8FL	.	.	4F	ve-	8.fL	ve-	(>16aLL	.	8.ffL	.	4r	.	4r	.
.	.	.	.	.	.	.	16cc)	.	.	.	.	.	.	.
8F	.	.	.	.	.	.	(>16a	.	.	.	.	.	.	.
.	.	.	.	.	16aJk	.	16ccJJ)	.	16aaJk	.	.	.	.	.
!	!	!	!	!	!	!	!LO:TX:a:t=problem:pół taktu powtórzone znakiem ÷	!	!	!	!	!	!	!
8F	.	.	8A	-nit	8cc	-nit	(>16aLL	.	8cccL	.	8aL	.	8cccL	.
.	.	.	.	.	.	.	16cc)	.	.	.	.	.	.	.
8FJ	.	.	8r	.	8r	.	(>16a	.	16aaL	.	8aJ	.	16aaL	.
.	.	.	.	.	.	.	16ccJJ)	.	16ffJJ	.	.	.	16ffJJ	.
=49	=49	=49	=49	=49	=49	=49	=49	=49	=49	=49	=49	=49	=49	=49
8r	.	.	4r	.	4r	.	16gLL	.	8bb-L	.	8r	.	8r	.
.	.	.	.	.	.	.	16cc	.	.	.	.	.	.	.
8E	6	.	.	.	.	.	16g	.	16bb-L	.	16ggLL	.	16bb-LL	.
.	.	.	.	.	.	.	16ccJJ	.	16ggJJ	.	16eeJJ	.	16ggJJ	.
8r	.	.	8r	.	8r	.	16aLL	.	8aaL	.	8r	.	8r	.
.	.	.	.	.	.	.	16cc	.	.	.	.	.	.	.
8F	.	.	16r	.	16r	.	16a	.	16aaL	.	8cc	.	16aaLL	.
.	.	.	16F	qui	16f	qui	16ccJJ	.	16ffJJ	.	.	.	16ffJJ	.
!LO:LB:g=original	!	!	!LO:LB:g=original	!	!	!	!	!	!	!	!	!	!	!
=50	=50	=50	=50	=50	=50	=50	=50	=50	=50	=50	=50	=50	=50	=50
8cL	.	.	(>16ELL	ve-	16eLL	ve-	8ccL\	.	16eeLL	.	8ee	.	8gg	.
.	.	.	16F)	.	16f	.	.	.	16ff	.	.	.	.	.
8GJ	.	.	(>16F#X	.	16f#X	.	8eJ 8cc	.	16ff#X	.	8r	.	8r	.
.	.	.	16GJJ)	.	16gJJ	.	.	.	16ggJJ	.	.	.	.	.
16CLL	.	.	8C	-nit	4c/	-nit	4e 4cc\	.	4cc	.	4r	.	4r	.
16EJJ	.	.	.	.	.	.	.	.	.	.	.	.	.	.
16GLL	.	.	8r	.	.	.	.	.	.	.	.	.	.	.
16cJJ	.	.	.	.	.	.	.	.	.	.	.	.	.	.
=51	=51	=51	=51	=51	=51	=51	=51	=51	=51	=51	=51	=51	=51	=51
8CL	7	.	16CLL/	in	16eLL	in	8eeL	.	8ggL	.	2r	.	2r	.
.	.	.	16E	.	16g	.	.	.	.	.	.	.	.	.
8C	.	.	16C	.	16e	.	8ee	.	8gg	.	.	.	.	.
.	.	.	16EJJ	.	16gJJ	.	.	.	.	.	.	.	.	.
8C	.	.	16GLL	no-	16b-LL	no-	8gg	.	8bb-	.	.	.	.	.
.	.	.	16EJJ	.	16gJJ	.	.	.	.	.	.	.	.	.
8CJ	.	.	16G	-mi-	16b-	-mi-	8eeJ	.	8ggJ	.	.	.	.	.
.	.	.	16E	-ne	16g	-ne	.	.	.	.	.	.	.	.
*Xtremolo	*	*	*	*	*	*	*	*	*	*	*	*	*	*
!	!	!	!	!	!LO:LB:g=original	!	!	!	!	!	!	!	!	!
=52	=52	=52	=52	=52	=52	=52	=52	=52	=52	=52	=52	=52	=52	=52
8r	.	.	8.F	Do-	16fLL	Do-	8fL 8a	.	8aaL	.	2r	.	2r	.
.	.	.	.	.	16aJJ	.	.	.	.	.	.	.	.	.
8FL	.	.	.	.	16fLL	-mi-	8fJ 8a	.	8aaJ	.	.	.	.	.
.	.	.	16F	-mi-	16aJJ	.	.	.	.	.	.	.	.	.
8A	.	.	4A	-ni	4cc	-ni	4f 4a	.	4ccc	.	.	.	.	.
8FJ	.	.	.	.	.	.	.	.	.	.	.	.	.	.
=53	=53	=53	=53	=53	=53	=53	=53	=53	=53	=53	=53	=53	=53	=53
*	*	*	*^	*	*	*	*	*	*	*	*	*	*	*
8B-L\	.	.	8B-	8ryy	in	8.ddL	in	2r	.	2r	.	2r	.	2r	.
!	!	!	!LO:TX:a:t=problem:triola być może dodana po korekcie	!	!	!	!	!	!	!	!	!	!	!	!
8B-\	.	.	24B-	24B-LL	no-	.	.	.	.	.	.	.	.	.	.
.	.	.	24G	24GJJ	-mi-	.	.	.	.	.	.	.	.	.	.
.	.	.	.	.	.	16b-Jk	.	.	.	.	.	.	.	.	.
!	!	!	!LO:TX:a:t=problem:nuta zamazana	!	!	!	!	!	!	!	!	!	!	!	!
.	.	.	24B-	24ryy	-ne	.	.	.	.	.	.	.	.	.	.
!	!	!	!LO:LB:g=original	!	!	!	!	!	!	!	!	!	!	!	!
8c\	.	.	16c	4ryy	Do-	16gLL	no-	.	.	.	.	.	.	.	.
.	.	.	16c	.	-mi-	16b-JJ	.	.	.	.	.	.	.	.	.
8CJ/	.	.	8C	.	-ni	16g	-mi-	.	.	.	.	.	.	.	.
.	.	.	.	.	.	16e	-ne	.	.	.	.	.	.	.	.
*	*	*	*v	*v	*	*	*	*	*	*	*	*	*	*	*
=54	=54	=54	=54	=54	=54	=54	=54	=54	=54	=54	=54	=54	=54	=54
!	!	!	!	!	!	!	!LO:TX:b:t=Da Capo Benedictus	!	!LO:TX:b:t=Da Capo Benedictus usque signum fermate	!	!LO:TX:b:t=Da Capo Benedictus usque fin	!	!LO:TX:b:t=Da Capo Benedictus usque fin	!
8FL\	.	.	8F	Do-	16fLL	Do-	2r	.	2r	.	2r	.	2r	.
.	.	.	.	.	16e	.	.	.	.	.	.	.	.	.
8CJ/	.	.	8C	-mi-	16fJJ	.	.	.	.	.	.	.	.	.
.	.	.	.	.	16a	-mi-	.	.	.	.	.	.	.	.
!	!	!	!LO:TX:a:t=26 Pau.	!	!LO:TX:a:t=problem:da capo zapisane za pomocą pauzy wielotaktowej	!	!	!	!	!	!	!	!	!
!	!	!	!LO:TX:a:t=problem:da capo zapisane za pomocą pauzy wielotaktowej	!	!LO:TX:a:t=26 Pau.	!	!	!	!	!	!	!	!	!
8AAL	.	.	4FF	-ni	4f	-ni	.	.	.	.	.	.	.	.
!LO:TX:b:t=Da Capo Benedictus	!	!	!	!	!	!	!	!	!	!	!	!	!	!
8FFJ	.	.	.	.	.	.	.	.	.	.	.	.	.	.
==	==	==	==	==	==	==	==	==	==	==	==	==	==	==
*-	*-	*-	*-	*-	*-	*-	*-	*-	*-	*-	*-	*-	*-	*-
!!!system-decoration: s1,s2,s3,s4,s5,s6,s7
!!!RDF**kern: > = above
!!!RDF**kern: < = below
!!!ENC: Anna Matuszewska
!!!END: 2020-03-29
